X:1
T:Sing We Now Of Christmas
T:Sing We Now Of Christmas
T:Traditional French Carol
C:Traditional French Carol
Z:All Rights Reserved
L:1/4
M:4/4
K:Bb
V:1 treble 
%%MIDI program 0
V:1
"Gm7" G d"C6" =e c |"Gm7" d2 B2 |"Am7b5" c c/d/"Eb9" B"D7b9" A |"Gm9" G4 |"Gm7" G d"C6" =e c | %5
w: Sing we now of|Christ- mas,|No- el _ sing we|here.|Sing our grate- ful|
"Gm7" d2 B2 |"Am7b5" c c/d/"Eb9" B"D7b9" A |"Gm9" G4 ||"Gm7" B2"C9" A G |"Fmaj7" A3 D | %10
w: prais- es|to the _ maid so|dear.|Sing we No-|el! The|
"Gm7" B B"A7" A G |"Am7b5""D7b9" A4 ||"Gm7" G d"C6" =e c |"Gm7" d2 B2 | %14
w: King is born, No-|el.|Sing we now of|Christ- mas,|
"Am7b5" c c/d/"Eb9" B"D7b9" A |"Gm9" G4 |] %16
w: sing we _ here No-|el.|

